styles/2/Numix/256/places/default-folder-documents.svg

<?xml version="1.0" encoding="UTF-8" standalone="no"?>
<svg
   xmlns:dc="http://purl.org/dc/elements/1.1/"
   xmlns:cc="http://creativecommons.org/ns#"
   xmlns:rdf="http://www.w3.org/1999/02/22-rdf-syntax-ns#"
   xmlns:svg="http://www.w3.org/2000/svg"
   xmlns="http://www.w3.org/2000/svg"
   xmlns:sodipodi="http://sodipodi.sourceforge.net/DTD/sodipodi-0.dtd"
   xmlns:inkscape="http://www.inkscape.org/namespaces/inkscape"
   width="256px"
   height="256px"
   viewBox="0 0 256 256"
   version="1.1"
   id="svg6866"
   inkscape:version="0.91 r"
   sodipodi:docname="default-folder-documents.svg">
  <metadata
     id="metadata6879">
    <rdf:RDF>
      <cc:Work
         rdf:about="">
        <dc:format>image/svg+xml</dc:format>
        <dc:type
           rdf:resource="http://purl.org/dc/dcmitype/StillImage" />
      </cc:Work>
    </rdf:RDF>
  </metadata>
  <defs
     id="defs6877" />
  <sodipodi:namedview
     pagecolor="#ffffff"
     bordercolor="#666666"
     borderopacity="1"
     objecttolerance="10"
     gridtolerance="10"
     guidetolerance="10"
     inkscape:pageopacity="0"
     inkscape:pageshadow="2"
     inkscape:window-width="640"
     inkscape:window-height="480"
     id="namedview6875" />
  <g
     id="surface1">
    <path
       style=" stroke:none;fill-rule:nonzero;fill:rgb(91.372549%,69.019608%,50.196078%);fill-opacity:1;"
       d="M 36 32 C 30.140625 32 24 38.046875 24 44 L 24 48 L 12 48 C 6.117188 48 0 53.984375 0 60 L 0 212 C 0 220 4 224 12 224 L 244 224 C 250.273438 224 256 218.570312 256 212 L 256 80 C 256 73.976562 250.179688 68 244 68 L 232 68 L 232 44 C 232 38.15625 226.1875 32 220 32 Z M 36 32 "
       id="path6869" />
    <path
       style=" stroke:none;fill-rule:nonzero;fill:rgb(0%,0%,0%);fill-opacity:0.321569;"
       d="M 36 32 C 30.140625 32 24 38.046875 24 44 L 24 48 L 12 48 C 6.117188 48 0 53.984375 0 60 L 0 212 C 0 220 4 224 12 224 L 244 224 C 250.273438 224 256 218.570312 256 212 L 256 80 C 256 73.976562 250.179688 68 244 68 L 232 68 L 232 44 C 232 38.15625 226.1875 32 220 32 Z M 12 56 L 148 56 C 150.359375 56 152 58.0625 152 60 L 152 76 L 244 76 C 246.023438 76 248 78.03125 248 80 L 248 212 C 248 214.085938 246.085938 216 244 216 L 12 216 C 10.140625 216 8 214.414062 8 212 L 8 60 C 8 58.03125 10.0625 56 12 56 Z M 12 56 "
       id="path6871" />
    <path
       style=" stroke:none;fill-rule:nonzero;fill:rgb(0%,0%,0%);fill-opacity:0.321569;"
       d="M 96 92 C 87.132812 92 80 99.132812 80 108 L 80 188 C 80 196.867188 87.132812 204 96 204 L 160 204 C 168.867188 204 176 196.867188 176 188 L 176 132 L 136 92 Z M 96 108 L 136 108 L 136 132 L 160 132 L 160 188 L 96 188 Z M 106 140 C 104.890625 140 104 140.890625 104 142 L 104 146 C 104 147.109375 104.890625 148 106 148 L 134 148 C 135.109375 148 136 147.109375 136 146 L 136 142 C 136 140.890625 135.109375 140 134 140 Z M 106 156 C 104.890625 156 104 156.890625 104 158 L 104 162 C 104 163.109375 104.890625 164 106 164 L 150 164 C 151.109375 164 152 163.109375 152 162 L 152 158 C 152 156.890625 151.109375 156 150 156 Z M 106 172 C 104.890625 172 104 172.890625 104 174 L 104 178 C 104 179.109375 104.890625 180 106 180 L 150 180 C 151.109375 180 152 179.109375 152 178 L 152 174 C 152 172.890625 151.109375 172 150 172 Z M 106 172 "
       id="path6873" />
  </g>
</svg>

<svg xmlns="http://www.w3.org/2000/svg" viewBox="0 0 256 256">
 <g>
  <path d="m 36 32 c -5.859 0 -12 6.05 -12 12 l 0 4 l -12 0 c -5.883 0 -12 5.984 -12 12 l 0 152 c 0 8 4 12 12 12 l 232 0 c 6.273 0 12 -5.43 12 -12 l 0 -132 c 0 -6.02 -5.82 -12 -12 -12 l -12 0 l 0 -24 c 0 -5.844 -5.813 -12 -12 -12 m -184 0" style="fill:#e8b07f;fill-opacity:1;stroke:none;fill-rule:nonzero"/>
  <path d="m 36 32 c -5.859 0 -12 6.05 -12 12 l 0 4 l -12 0 c -5.883 0 -12 5.984 -12 12 l 0 152 c 0 8 4 12 12 12 l 232 0 c 6.273 0 12 -5.43 12 -12 l 0 -132 c 0 -6.02 -5.82 -12 -12 -12 l -12 0 l 0 -24 c 0 -5.844 -5.813 -12 -12 -12 m -208 24 l 136 0 c 2.359 0 4 2.063 4 4 l 0 16 l 92 0 c 2.023 0 4 2.031 4 4 l 0 132 c 0 2.086 -1.914 4 -4 4 l -232 0 c -1.859 0 -4 -1.586 -4 -4 l 0 -152 c 0 -1.969 2.063 -4 4 -4 m 0 0" style="fill:#000;fill-opacity:0.322;stroke:none;fill-rule:nonzero"/>
  <path d="m 96 92 c -8.867 0 -16 7.133 -16 16 l 0 80 c 0 8.867 7.133 16 16 16 l 64 0 c 8.867 0 16 -7.133 16 -16 l 0 -56 l -40 -40 m -40 16 l 40 0 l 0 24 l 24 0 l 0 56 l -64 0 m 10 -48 c -1.109 0 -2 0.891 -2 2 l 0 4 c 0 1.109 0.891 2 2 2 l 28 0 c 1.109 0 2 -0.891 2 -2 l 0 -4 c 0 -1.109 -0.891 -2 -2 -2 m -28 16 c -1.109 0 -2 0.891 -2 2 l 0 4 c 0 1.109 0.891 2 2 2 l 44 0 c 1.109 0 2 -0.891 2 -2 l 0 -4 c 0 -1.109 -0.891 -2 -2 -2 m -44 16 c -1.109 0 -2 0.891 -2 2 l 0 4 c 0 1.109 0.891 2 2 2 l 44 0 c 1.109 0 2 -0.891 2 -2 l 0 -4 c 0 -1.109 -0.891 -2 -2 -2 m -44 0" style="fill:#000;fill-opacity:0.322;stroke:none;fill-rule:nonzero"/>
 </g>
</svg>
